style-guide/assets/xd-icons-eye.svg

<?xml version="1.0" encoding="UTF-8"?>
<svg width="24px" height="24px" viewBox="0 0 24 24" version="1.1" xmlns="http://www.w3.org/2000/svg" xmlns:xlink="http://www.w3.org/1999/xlink">
    <!-- Generator: Sketch 51.3 (57544) - http://www.bohemiancoding.com/sketch -->
    <title>eye</title>
    <desc>Created with Sketch.</desc>
    <defs>
        <path d="M15,11.7807 C15,13.4307 13.65,14.7807 12,14.7807 C10.35,14.7807 9,13.4307 9,11.7807 C9,10.1307 10.35,8.7807 12,8.7807 C13.65,8.7807 15,10.1307 15,11.7807 M12,18.561 C7.6,18.561 3.65,15.851 2.07,11.781 C3.65,7.71 7.6,5 12,5 C16.4,5 20.35,7.71 21.93,11.781 C20.35,15.851 16.4,18.561 12,18.561 M23.94,11.451 C22.16,6.391 17.36,3 12,3 C6.64,3 1.84,6.391 0.06,11.451 C-0.02,11.661 -0.02,11.901 0.06,12.111 C1.84,17.17 6.64,20.561 12,20.561 C17.36,20.561 22.16,17.17 23.94,12.111 C24.02,11.901 24.02,11.661 23.94,11.451" id="path-1"></path>
    </defs>
    <g id="eye" stroke="none" stroke-width="1" fill="none" fill-rule="evenodd">
        <mask id="mask-2" fill="white">
            <use xlink:href="#path-1"></use>
        </mask>
        <use id="icons/24px/Eye" fill="#000000" xlink:href="#path-1"></use>
    </g>
</svg>

<svg viewBox="0 0 24 24" xmlns="http://www.w3.org/2000/svg" xmlns:xlink="http://www.w3.org/1999/xlink">
  <path d="M15 11.78c0 1.65-1.35 3-3 3s-3-1.35-3-3 1.35-3 3-3 3 1.35 3 3m-3 6.781c-4.4 0-8.35-2.71-9.93-6.78C3.65 7.71 7.6 5 12 5c4.4 0 8.35 2.71 9.93 6.781-1.58 4.07-5.53 6.78-9.93 6.78m11.94-7.11A12.67 12.67 0 0 0 12 3 12.67 12.67 0 0 0 .06 11.451c-.08.21-.08.45 0 .66A12.67 12.67 0 0 0 12 20.561a12.67 12.67 0 0 0 11.94-8.45c.08-.21.08-.45 0-.66"/>
</svg>
